Numix-GalliumOS/16/categories/applications-utilities.svg

<?xml version="1.0" encoding="UTF-8" standalone="no"?>
<svg
   xmlns:dc="http://purl.org/dc/elements/1.1/"
   xmlns:cc="http://creativecommons.org/ns#"
   xmlns:rdf="http://www.w3.org/1999/02/22-rdf-syntax-ns#"
   xmlns:svg="http://www.w3.org/2000/svg"
   xmlns="http://www.w3.org/2000/svg"
   xmlns:sodipodi="http://sodipodi.sourceforge.net/DTD/sodipodi-0.dtd"
   xmlns:inkscape="http://www.inkscape.org/namespaces/inkscape"
   width="16"
   height="16"
   viewBox="0 0 16 16"
   id="svg2"
   version="1.1"
   inkscape:version="0.91 r"
   sodipodi:docname="applications-utilities.svg">
  <metadata
     id="metadata18">
    <rdf:RDF>
      <cc:Work
         rdf:about="">
        <dc:format>image/svg+xml</dc:format>
        <dc:type
           rdf:resource="http://purl.org/dc/dcmitype/StillImage" />
        <dc:title />
      </cc:Work>
    </rdf:RDF>
  </metadata>
  <defs
     id="defs16" />
  <sodipodi:namedview
     pagecolor="#ffffff"
     bordercolor="#666666"
     borderopacity="1"
     objecttolerance="10"
     gridtolerance="10"
     guidetolerance="10"
     inkscape:pageopacity="0"
     inkscape:pageshadow="2"
     inkscape:window-width="1920"
     inkscape:window-height="1056"
     id="namedview14"
     showgrid="true"
     inkscape:zoom="29.5"
     inkscape:cx="-2.926983"
     inkscape:cy="0.5745419"
     inkscape:window-x="0"
     inkscape:window-y="24"
     inkscape:window-maximized="1"
     inkscape:current-layer="svg2">
    <inkscape:grid
       type="xygrid"
       id="grid4146" />
  </sodipodi:namedview>
  <path
     style="fill:none;stroke:#2f8b96;stroke-width:1;stroke-miterlimit:4;stroke-dasharray:none"
     d="M 13.5,7.9999999 C 13.5,11.036595 11.036595,13.5 8,13.5 4.9634046,13.5 2.5,11.036595 2.5,7.9999999 2.5,4.9634049 4.9634046,2.5000001 8,2.5000001 c 3.036595,0 5.5,2.4634048 5.5,5.4999998 z"
     id="path4"
     inkscape:connector-curvature="0" />
  <path
     style="fill:#2f8b96"
     inkscape:connector-curvature="0"
     id="path8"
     d="m 5.9999995,8 c 0,0.5526931 -0.4473067,0.9999997 -0.9999998,0.9999997 C 4.4473067,8.9999997 4,8.5526931 4,8 4,7.4473069 4.4473068,7.0000003 4.9999997,7.0000003 5.5526928,7.0000003 5.9999995,7.4473069 5.9999995,8 Z" />
  <path
     style="fill:#2f8b96"
     inkscape:connector-curvature="0"
     id="path10"
     d="M 9,8 C 9,8.5526928 8.5526934,8.9999992 8,8.9999992 7.447307,8.9999992 7.0000004,8.5526928 7.0000004,8 7.0000004,7.4473071 7.447307,7.0000008 8,7.0000008 8.5526932,7.0000008 9,7.4473071 9,8 Z" />
  <path
     style="fill:#2f8b96"
     inkscape:connector-curvature="0"
     id="path12"
     d="M 11.999999,7.9999999 C 11.999999,8.5526933 11.552693,9 10.999998,9 10.447306,9 10,8.5526933 10,8 c 0,-0.5526933 0.447306,-1 0.999998,-1 0.552695,0 1.000001,0.4473067 1.000001,1 z" />
</svg>

<svg xmlns="http://www.w3.org/2000/svg" viewBox="0 0 16 16">
 <path d="m 13.5 8 c 0 3.037 -2.463 5.5 -5.5 5.5 -3.037 0 -5.5 -2.463 -5.5 -5.5 0 -3.037 2.463 -5.5 5.5 -5.5 c 3.037 0 5.5 2.463 5.5 5.5 z" style="stroke-dasharray:none;fill:none;stroke-miterlimit:4;stroke:#2f8b96;stroke-width:1"/>
 <path d="m 6 8 c 0 0.553 -0.447 1 -1 1 c -0.553 0 -1 -0.447 -1 -1 0 -0.553 0.447 -1 1 -1 0.553 0 1 0.447 1 1" style="fill:#2f8b96"/>
 <path d="m 9 8 c 0 0.553 -0.447 1 -1 1 -0.553 0 -1 -0.447 -1 -1 0 -0.553 0.447 -1 1 -1 0.553 0 1 0.447 1 1" style="fill:#2f8b96"/>
 <path d="m 12 8 c 0 0.553 -0.447 1 -1 1 -0.553 0 -1 -0.447 -1 -1 c 0 -0.553 0.447 -1 1 -1 0.553 0 1 0.447 1 1 z" style="fill:#2f8b96"/>
</svg>
